X: 14662
T: Gan Ainm
R: jig
M: 6/8
K: Adorian
|:AdA e2A|~g3 fed|cde G2c|EFG BAG|
AdA e2A|~g3 fed|cde G2c|BAG A3:|
|:cec g2e|~g3 agf|def ABc|def gfe|
cec g2e|~g3 agf|def gfe|dBA G3:|

